X: 25445
T: Marcha Nupcial De Villaperi
R: jig
M: 6/8
K: Dmajor
a|:fed dcd|fdf agf|efe Ace|dcB A2a|
fed dcd|fdf agf|efe dBc|1 d3 d2a:|2 d3 cBA||
|:~B3 cde|fdf gfe|dBd dcB|~A3 cBA|
BdB cde|fdf agf|efe dBc|1 d3 cBA:|2 d3d2a||"Last time" d6||

